X: 1
T: Sheebag Sheemore
C: O'Carolan
N: From the Roaring Jelly collection
M: 3/4
R: waltz
K: D
   de |\
"D"f3 e d2 | d3 e d2 | "G"B4 A2 | "D"F4 A2 |\
"G"BA Bc d2 | "A"e4 de | "D"f4 (3efe | d4 f2 |
"G"B4 e2 | "A"A4 d2 | "D"F4 (3EFE | D4 f2 |\
"G"B4 e2 | "A"A4 dc | "D"d4 d2 | d4 :|
|: de |\
"D"f3 e d2 | ed ef a2 | "G"b4 a2 | "D"f3 e d2 |\
"A"e4 a2 | "D"f2 e2 d2 | "G"d4 B2 | "D"A4 BA |
"D"F4 (3EFE | D4 f2 | "G"B4 e2 | "A"A4 a2 |\
"G"ba gf ed | "A"e4 dc | "D"d4 dc | d4 :|
